X:1
L:1/8
M:3/4
K:G
""^A"" B>B | c4 e2 | d4 c2 | B3 B A2 | G4 e2 | d3 d c2 | A4 c2 | B3 B A2 | G4 B2 | c4 e2 | d4 c2 | 
 B3 B A2 | G4 e2 | d3 d c2 | B3 B A2 | (G6 | G2) z2 ||[M:3/4]""^B"" Bd | cE Ge dc | B2 G2 GB | 
 AD FA dc | B3 z Bd | cE Ge dc | B2 G2 GB | AD Fc BA | G3 z Bd | cE Ge dc | B2 G2 GB | AD FA dc | 
 B3 z Bd | cE Ge dc | B2 G2 GB | AD Fc BA | G4 ||[M:4/4]""^C"" D G A | B2 B2 B>c BA | G2 D2 D2 GB | 
 A2 Dd d3 c | B>c BA GD GA | B2 B2 B>c BA | G2 D2 D2 GB | A2 Dd d>c BA | G4 z D G A | 
 B2 B2 B>c BA |[M:4/4] G2 D2 D2 GB | A2 Dd d3 c | B>c BA GD GA | B2 B2 B>c BA | G2 D2 D2 GB | 
 A2 Dd d>c BA | G4 z ||[M:3/4]""_(Ausklang)"" B>B | c3 e dc | B>A G2 e>e | d3 c BA | G4 |]
